X:71
T:Kruspolskan
R:sl\"angpolska
H:efter Gotthard Sj\"oman, Ventlinge, som hade den efter
H:sin far Nils Petter Sj\"oman.
A:\"Oland
B:\"Olands folkliga visor och melodier s184
Z:id:hn-sp-71
M:3/4
L:1/16
K:Am ^f
e3c A2A2 c2c2 | d2d2 f2fd e4 | c3e g2e2 c2c2 | d2d2 f2fd e4 |
e3g b2b2 a2a2 | g2g2 e2e2 c2c2 | d2B2 PB2A2 A4 :|
|: A3B c2A2 B4 | B2AB c2A2 A4 | A3B c2A2 B4 | B2AB c4 A4 :|
W:Inte krusar ja' f\"or du \"ar n\"att och grann
W:f{\aa}r jag inte dig s{\aa} tar ja' v\"al en ann'
W:
<end>
<start>
